src/assets/images/inputImages/notification.svg

<svg id="Layer_1" enable-background="new 0 0 512 512" height="512" viewBox="0 0 512 512" width="512" xmlns="http://www.w3.org/2000/svg"><g><path d="m432 352c-17.645 0-32-14.355-32-32v-112c0-38.558-15.043-74.783-42.357-102.002-16.839-16.78-37.087-28.878-59.176-35.662 3.526-6.676 5.533-14.274 5.533-22.336 0-26.467-21.533-48-48-48s-48 21.533-48 48c0 8.108 2.028 15.749 5.593 22.453-58.745 18.349-101.593 73.757-101.593 138.937v110.61c0 17.645-14.355 32-32 32-8.836 0-16 7.164-16 16v64c0 8.836 7.164 16 16 16h120.575c-.374 2.629-.575 5.299-.575 8 0 30.878 25.122 56 56 56s56-25.122 56-56c0-2.701-.2-5.371-.575-8h120.575c8.836 0 16-7.164 16-16v-64c0-8.836-7.164-16-16-16zm-176-320c8.822 0 16 7.178 16 16s-7.178 16-16 16-16-7.178-16-16 7.178-16 16-16zm24 424c0 13.234-10.766 24-24 24s-24-10.766-24-24c0-2.765.462-5.458 1.361-8h45.277c.9 2.542 1.362 5.235 1.362 8zm136-40h-128-64-128v-34.025c27.573-7.122 48-32.208 48-61.975v-110.61c0-62.307 50.062-113.173 111.597-113.389.136 0 .27-.001.405-.001 29.844 0 57.905 11.591 79.053 32.665 21.245 21.17 32.945 49.346 32.945 79.335v112c0 29.767 20.427 54.853 48 61.975z"/><path d="m192 224c-8.836 0-16-7.164-16-16 0-44.112 35.888-80 80-80 8.836 0 16 7.164 16 16s-7.164 16-16 16c-26.467 0-48 21.533-48 48 0 8.836-7.164 16-16 16z"/></g></svg>

<?xml version="1.0" encoding="utf-8"?>
<!-- Generator: Adobe Illustrator 22.1.0, SVG Export Plug-In . SVG Version: 6.00 Build 0)  -->
<svg version="1.1" id="Layer_1" xmlns="http://www.w3.org/2000/svg" xmlns:xlink="http://www.w3.org/1999/xlink" x="0px" y="0px"
	 viewBox="0 0 512 512" style="enable-background:new 0 0 512 512;" xml:space="preserve">
<g>
	<path d="M432,352c-17.6,0-32-14.4-32-32V208c0-38.6-15-74.8-42.4-102c-16.8-16.8-37.1-28.9-59.2-35.7C302,63.7,304,56.1,304,48
		c0-26.5-21.5-48-48-48s-48,21.5-48,48c0,8.1,2,15.7,5.6,22.5C154.8,88.8,112,144.2,112,209.4V320c0,17.6-14.4,32-32,32
		c-8.8,0-16,7.2-16,16v64c0,8.8,7.2,16,16,16h120.6c-0.4,2.6-0.6,5.3-0.6,8c0,30.9,25.1,56,56,56s56-25.1,56-56c0-2.7-0.2-5.4-0.6-8
		H432c8.8,0,16-7.2,16-16v-64C448,359.2,440.8,352,432,352z M256,32c8.8,0,16,7.2,16,16s-7.2,16-16,16s-16-7.2-16-16
		S247.2,32,256,32z M280,456c0,13.2-10.8,24-24,24s-24-10.8-24-24c0-2.8,0.5-5.5,1.4-8h45.3C279.5,450.5,280,453.2,280,456z
		 M416,416H288h-64H96v-34c27.6-7.1,48-32.2,48-62V209.4c0-62.3,50.1-113.2,111.6-113.4c0.1,0,0.3,0,0.4,0
		c29.8,0,57.9,11.6,79.1,32.7C356.3,149.8,368,178,368,208v112c0,29.8,20.4,54.9,48,62L416,416z"/>
	<path d="M192,224c-8.8,0-16-7.2-16-16c0-44.1,35.9-80,80-80c8.8,0,16,7.2,16,16s-7.2,16-16,16c-26.5,0-48,21.5-48,48
		C208,216.8,200.8,224,192,224z"/>
</g>
</svg>
